icons/syringe-vaccine.svg

<svg width="48" height="48" viewBox="0 0 48 48" fill="none" xmlns="http://www.w3.org/2000/svg">
<path fill-rule="evenodd" clip-rule="evenodd" d="M6.81818 14.5001C6.36631 14.0483 6.36631 13.3156 6.81818 12.8638L13.3636 6.31816C13.8155 5.86628 14.5481 5.86628 15 6.31816C15.4518 6.77004 15.4518 7.50268 15 7.95456L14.1823 8.77223L18.2727 12.8627L21.5454 9.58989C21.9973 9.13801 22.7299 9.13801 23.1818 9.58989C23.6336 10.0418 23.6336 10.7744 23.1818 11.2263L21.545 12.8631L35.4545 26.7729C37.132 28.4505 37.564 30.902 36.7504 32.9782L37.9089 34.1367C38.5144 34.7422 38.7142 35.5999 38.5083 36.3718L41.1818 39.0454C41.6337 39.4973 41.6337 40.2299 41.1818 40.6818C40.73 41.1337 39.9974 41.1337 39.5455 40.6818L36.8724 38.0086C36.1002 38.215 35.242 38.0153 34.6362 37.4095L33.4777 36.2509C31.4016 37.0645 28.9502 36.6325 27.2727 34.9549L25.1328 32.8142L31.9 26.0468L20.1308 14.2773L14.7774 19.6309L17.1464 22H14.3181L13.3632 21.0451L11.7272 22.6811C11.2754 23.133 10.5428 23.133 10.0909 22.6811C9.63902 22.2292 9.63902 21.4966 10.0909 21.0447L13.3636 17.7719L9.27324 13.6814L8.45454 14.5001C8.00267 14.952 7.27005 14.952 6.81818 14.5001ZM12.7681 10.1865L10.6874 12.2672L14.7778 16.3576L16.8585 14.2769L12.7681 10.1865ZM28.6869 33.5407C29.7849 34.6388 31.3897 34.9212 32.7484 34.3881L34.8877 32.2488C35.4208 30.89 35.1383 29.2852 34.0403 28.1872L33.5364 27.6832L28.183 33.0367L28.6869 33.5407ZM35.4545 34.9549C35.3799 35.0295 35.3039 35.1016 35.2264 35.1712L36.0504 35.9952C36.1731 36.1179 36.372 36.1179 36.4947 35.9952C36.6174 35.8725 36.6174 35.6736 36.4947 35.5509L35.6707 34.7269C35.6011 34.8043 35.529 34.8804 35.4545 34.9549Z" fill="black"/>
<path d="M16 28C16.5523 28 17 28.4477 17 29V31H19C19.5523 31 20 31.4477 20 32C20 32.5522 19.5523 33 19 33H17V35C17 35.5522 16.5523 36 16 36C15.4477 36 15 35.5522 15 35V33H13C12.4477 33 12 32.5522 12 32C12 31.4477 12.4477 31 13 31H15V29C15 28.4477 15.4477 28 16 28Z" fill="black"/>
<path fill-rule="evenodd" clip-rule="evenodd" d="M8.65965 37.6887C10.3871 39.8712 12.8 41.3922 15.4992 42C18.1987 41.3925 20.612 39.8717 22.3397 37.6892C24.0674 35.5067 25.006 32.7934 25 29.9983V26.3996C25 25.7632 24.7498 25.1528 24.3045 24.7028C23.8592 24.2528 23.2553 24 22.6256 24H8.37441C7.74469 24 7.14076 24.2528 6.69547 24.7028C6.25019 25.1528 6.00003 25.7632 6.00003 26.3996V29.9983C5.99395 32.7931 6.93225 35.5063 8.65965 37.6887ZM23 29.9983L23 30.0026C23.005 32.3476 22.2174 34.6214 20.7716 36.4478C19.4208 38.1542 17.5719 39.3738 15.4993 39.9395C13.427 39.3735 11.5784 38.1538 10.2279 36.4475C8.78229 34.6211 7.99493 32.3474 8.00003 30.0027V26.3996C8.00003 26.2868 8.04456 26.1829 8.11716 26.1095C8.18904 26.0369 8.282 26 8.37441 26H22.6256C22.718 26 22.811 26.0369 22.8828 26.1095C22.9554 26.1829 23 26.2868 23 26.3996L23 29.9983Z" fill="black"/>
</svg>

<svg
  xmlns="http://www.w3.org/2000/svg"
  width="24"
  height="24"
  viewBox="0 0 24 24"
  fill="none"
  stroke="currentColor"
  stroke-width="2"
  stroke-linecap="round"
  stroke-linejoin="round"
>
  <path
    fill-rule="evenodd"
    d="M6.818 14.5a1.157 1.157 0 0 1 0-1.636l6.546-6.546A1.157 1.157 0 1 1 15 7.955l-.818.817 4.09 4.09 3.273-3.272a1.157 1.157 0 1 1 1.637 1.636l-1.637 1.637 13.91 13.91a5.79 5.79 0 0 1 1.295 6.205l1.159 1.159c.605.605.805 1.463.6 2.235l2.673 2.673a1.157 1.157 0 1 1-1.637 1.637l-2.673-2.673a2.31 2.31 0 0 1-2.236-.6l-1.158-1.158a5.79 5.79 0 0 1-6.205-1.296l-2.14-2.14 6.767-6.768-11.77-11.77-5.353 5.354L17.147 22h-2.829l-.955-.955-1.636 1.636a1.157 1.157 0 1 1-1.636-1.636l3.273-3.273-4.09-4.09-.82.818a1.157 1.157 0 0 1-1.636 0m5.95-4.313-2.08 2.08 4.09 4.09 2.08-2.08zM28.687 33.54a3.79 3.79 0 0 0 4.061.847l2.14-2.14a3.79 3.79 0 0 0-.848-4.06l-.504-.505-5.353 5.354zm6.768 1.414q-.112.113-.229.216l.824.824a.314.314 0 1 0 .445-.444l-.824-.824a6 6 0 0 1-.216.228"
    clip-rule="evenodd"
  />
  <path d="M16 28a1 1 0 0 1 1 1v2h2a1 1 0 1 1 0 2h-2v2a1 1 0 0 1-2 0v-2h-2a1 1 0 0 1 0-2h2v-2a1 1 0 0 1 1-1" />
  <path
    fill-rule="evenodd"
    d="M8.66 37.689A12.12 12.12 0 0 0 15.5 42a12.12 12.12 0 0 0 6.84-4.31A12.35 12.35 0 0 0 25 29.997V26.4c0-.637-.25-1.247-.695-1.697a2.36 2.36 0 0 0-1.68-.703H8.376c-.63 0-1.234.253-1.68.703A2.41 2.41 0 0 0 6 26.4v3.598a12.35 12.35 0 0 0 2.66 7.69M23 29.999v.004a10.35 10.35 0 0 1-2.228 6.445 10.13 10.13 0 0 1-5.273 3.492 10.13 10.13 0 0 1-5.271-3.492A10.35 10.35 0 0 1 8 30.002V26.4c0-.113.045-.217.117-.29a.36.36 0 0 1 .257-.11h14.252c.092 0 .185.037.257.11a.41.41 0 0 1 .117.29z"
    clip-rule="evenodd"
  />
</svg>
